assets/img/achieves/misc/minecraft.svg

<svg xmlns="http://www.w3.org/2000/svg" width="64" height="64">
  <g fill="#a64300">
    <path fill="#008c00" d="M32 2l29 9.5L32 28 3 11.5z"/>
    <path fill="#008c00" d="M3 11.5L32 28v9L4 18z"/>
    <path fill="#37c937" d="M32 28l29-16.5-1 6.5-28 19"/>
    <path fill="#a64200" d="M4 18l28 19v25L7.5 41.5z"/>
    <path fill="#c87138" d="M32 37l28-19-3.5 23.5L32 62z"/>
  </g>
</svg>

<?xml version="1.0" encoding="UTF-8" standalone="no"?>
<!-- Created with Inkscape (http://www.inkscape.org/) -->

<svg
   xmlns:dc="http://purl.org/dc/elements/1.1/"
   xmlns:cc="http://creativecommons.org/ns#"
   xmlns:rdf="http://www.w3.org/1999/02/22-rdf-syntax-ns#"
   xmlns:svg="http://www.w3.org/2000/svg"
   xmlns="http://www.w3.org/2000/svg"
   xmlns:sodipodi="http://sodipodi.sourceforge.net/DTD/sodipodi-0.dtd"
   xmlns:inkscape="http://www.inkscape.org/namespaces/inkscape"
   width="64"
   height="64"
   id="svg2"
   version="1.1"
   inkscape:version="0.48.2 r9819"
   enable-background="new"
   sodipodi:docname="mi.svg">
  <defs
     id="defs4">
    <inkscape:perspective
       sodipodi:type="inkscape:persp3d"
       inkscape:vp_x="169.13971 : -51.94941 : 1"
       inkscape:vp_y="-2.926881e-013 : -2321.1645 : 0"
       inkscape:vp_z="10.694436 : -59.698869 : 1"
       inkscape:persp3d-origin="90.644055 : -37.796925 : 1"
       id="perspective2985" />
    <filter
       inkscape:collect="always"
       id="filter3842">
      <feBlend
         inkscape:collect="always"
         mode="darken"
         in2="BackgroundImage"
         id="feBlend3844" />
    </filter>
  </defs>
  <sodipodi:namedview
     id="base"
     pagecolor="#ffffff"
     bordercolor="#666666"
     borderopacity="1.0"
     inkscape:pageopacity="0.0"
     inkscape:pageshadow="2"
     inkscape:zoom="3.9111844"
     inkscape:cx="113.84653"
     inkscape:cy="-13.516933"
     inkscape:document-units="px"
     inkscape:current-layer="layer1"
     showgrid="false"
     inkscape:snap-bbox="true"
     inkscape:snap-grids="false"
     inkscape:snap-to-guides="false"
     inkscape:snap-nodes="false"
     inkscape:window-width="1920"
     inkscape:window-height="1018"
     inkscape:window-x="-8"
     inkscape:window-y="-8"
     inkscape:window-maximized="1" />
  <metadata
     id="metadata7">
    <rdf:RDF>
      <cc:Work
         rdf:about="">
        <dc:format>image/svg+xml</dc:format>
        <dc:type
           rdf:resource="http://purl.org/dc/dcmitype/StillImage" />
        <dc:title></dc:title>
      </cc:Work>
    </rdf:RDF>
  </metadata>
  <g
     inkscape:label="Base"
     inkscape:groupmode="layer"
     id="layer1"
     transform="translate(0,-988.36218)"
     style="display:inline"
     sodipodi:insensitive="true">
    <g
       sodipodi:type="inkscape:box3d"
       style="fill:#a64300;fill-opacity:1"
       id="g3799"
       inkscape:perspectiveID="#perspective2985"
       inkscape:corner0="0.40342561 : 0.039273705 : 0 : 1"
       inkscape:corner7="-0.080623883 : 0.026059123 : 0.63580335 : 1">
      <path
         style="fill:#008c00;fill-opacity:1;stroke:none"
         d="M 32,2 61,11.5 32,28 3,11.5 z"
         id="path4049"
         inkscape:connector-curvature="0"
         transform="translate(0,988.36218)" />
      <path
         style="fill:#008c00;fill-opacity:1;stroke:none"
         d="M 3,11.5 32,28 32,37 4,18 z"
         id="path4051"
         inkscape:connector-curvature="0"
         transform="translate(0,988.36218)" />
      <path
         style="fill:#37c937;fill-opacity:1;stroke:none"
         d="M 32,28 61,11.5 60,18 32,37"
         id="path4053"
         inkscape:connector-curvature="0"
         transform="translate(0,988.36218)" />
      <path
         style="fill:#a64200;fill-opacity:1;stroke:none"
         d="M 4,18 32,37 32,62 7.5,41.5 z"
         id="path4055"
         inkscape:connector-curvature="0"
         transform="translate(0,988.36218)" />
      <path
         style="fill:#c87138;fill-opacity:1;stroke:none"
         d="M 32,37 60,18 56.5,41.5 32,62 z"
         id="path4057"
         inkscape:connector-curvature="0"
         transform="translate(0,988.36218)" />
    </g>
  </g>
</svg>
